svg/u2603.svg

<svg viewBox="0 0 128 128" xmlns="http://www.w3.org/2000/svg">
  <path d="M90.39,80.18c0,0,12.95-10.56,14.71-11.83c1.3-0.93,3.02-2.13,4.58-0.42 c1.51,1.65-0.07,3.78-1.27,4.93c-1.62,1.55-15.06,12.67-15.06,12.67L90.39,80.18z" fill="#474D50"/>
  <path d="M98.27,65.47c-2.08,0.6-1.9,3.03-1.62,5.42c0.28,2.39,0.35,6.48,0.35,6.48l4.58-4.79 c0,0-0.21-1.69-0.21-3.17S100.95,64.7,98.27,65.47z" fill="#474D50"/>
  <path d="M37.1,77.65c0,0-12.04-10.21-13.09-11.26c-1.41-1.41-3.73-2.39-5.21-0.63 c-1.47,1.75-0.39,3.76,0.92,5.07c2.46,2.46,15.2,13.23,15.2,13.23L37.1,77.65z" fill="#474D50"/>
  <path d="M27.81,72.65c0,0,0.28-3.59,0.42-5.07c0.14-1.48,0.99-4.08,3.38-3.17c2.01,0.77,1.62,3.1,1.34,5 c-0.2,1.32-0.99,6.05-0.99,6.05L27.81,72.65z" fill="#474D50"/>
  <path d="M67.23,4.23C58.49,3.7,51.68,5.29,51.39,6.56s-0.35,19.64-0.35,19.64s-12.1,0.5-12.32,3.59 c-0.21,3.03,6.55,5.14,24.64,5.63s26.67,0.06,27.1-3.38c0.49-3.94-10.49-4.58-10.49-4.58s2.53-18.72,2.18-19.29 S76.52,4.8,67.23,4.23z" fill="#474D50"/>
  <path d="M65.54,21.83c-6.75-0.27-14.5,0.42-14.5,0.42v3.94c0,0,6.19-0.42,13.87-0.21s15.06,1.48,15.06,1.48 l0.49-3.8C80.46,23.66,74.48,22.18,65.54,21.83z" fill="#A42718"/>
  <path d="M43.23,69.84c0,0-6.03-5.79-5.35-18.51c0.7-13.09,9.85-18.16,12.53-18.93 c2.67-0.77,8.66-1.27,14.85-0.99c6.19,0.28,14.29,1.2,15.77,1.83s10,6.34,10.07,19.38c0.07,12.3-6.83,18.21-6.83,18.21 s12.55,8.92,14.05,21.02c1.5,12.11-4.31,22.54-14.36,28.06c-11.45,6.29-31.63,7.13-44.02-2.53c-8.85-6.91-11.92-17.55-10.32-27.12 C31.59,78.41,43.23,69.84,43.23,69.84z" fill="#E0E0E0"/>
  <path d="M51.84,45.93c-2.91-0.52-3.99,1.92-4.18,3.71c-0.19,1.78,0.44,4.21,2.39,4.55 c2.11,0.38,3.8-1.17,4.08-4.09C54.39,47.55,53.2,46.17,51.84,45.93z" fill="#303030"/>
  <path d="M72.91,50.2c-0.22,2.64,1.43,4.22,3.24,4.27c1.88,0.05,3.29-1.57,3.44-4.31 c0.14-2.53-1.27-3.8-3.2-3.81C74.41,46.34,73.1,47.99,72.91,50.2z" fill="#303030"/>
  <path d="M56.43,60.47c-1.13,0.95,0.07,2.83,2.53,3.94c2.57,1.16,6.9,1.51,10.31-0.21 c1.76-0.89,2.71-2.46,1.79-3.24c-0.77-0.65-1.83-0.22-2.9,0.35c-1.11,0.6-2.99,1-4.49,0.95c-1.5-0.05-3.45-0.81-4.15-1.23 C58.4,60.37,57.51,59.56,56.43,60.47z" fill="#303030"/>
  <path d="M60.05,52.54c-0.14,0.56,2.6,7.33,3.91,7.19c1.3-0.14,3.45-7.23,3.27-7.75 c-0.18-0.53-2.32-0.77-3.55-0.74S60.19,51.98,60.05,52.54z" fill="#FFA72B"/>
  <path d="M59.37,84.1c0,3.45,2.97,3.85,4.3,3.82c1.96-0.05,3.66-1.48,3.55-3.87s-1.38-3.49-3.76-3.61 C61.33,80.34,59.37,81.87,59.37,84.1z" fill="#303030"/>
  <path d="M59.96,98.58c-0.04,2.12,3.16,3.23,4.88,2.97c2.12-0.32,3.73-2.85,2.97-5.09 c-0.85-2.49-3.45-2.49-4.77-2.23C61.71,94.49,60.01,95.66,59.96,98.58z" fill="#303030"/>
  <path d="M28.11,41.63c0,0,1.92-3.03-0.24-3.6c-2.16-0.57-2.95,2.54-2.95,2.54s-2.1-2.9-3.57-1.42 c-1.48,1.48,0.23,3.74,0.23,3.74s-3.52,0.34-2.84,3.06c0.44,1.76,3.63,0.91,3.63,0.91s-0.91,3.52,1.36,3.97 c2.27,0.45,2.95-2.16,2.95-2.16s2.27,2.27,3.63,0.79c1.36-1.48-1.48-4.31-1.48-4.31s3.18-1.13,2.61-3.06 C30.88,40.17,28.11,41.63,28.11,41.63z" fill="#95C7F7"/>
  <path d="M19.88,27.01c0,0-3.18,0.02-3.18-1.59c0-2.61,3.74-1.48,3.74-1.48s-1.93-3.06-0.34-3.97 c1.59-0.91,2.95,1.93,2.95,1.93s1.36-2.5,3.18-1.82S26,23.49,26,23.49s2.84-0.11,3.06,1.7s-2.95,2.38-2.95,2.38s2.04,2.04,0.45,3.29 s-3.52-1.93-3.52-1.93s-0.57,2.61-2.5,2.16C18.63,30.64,19.88,27.01,19.88,27.01z" fill="#95C7F7"/>
  <path d="M35.08,18.15c0,0-2.29-1.06-1.44-2.54c0.84-1.48,3.24-0.07,3.24-0.07s0.63-3.1,2.25-2.67 s1.13,3.1,1.13,3.1s3.17-0.84,3.52,0.7c0.35,1.55-1.9,2.39-1.9,2.39s2.53,1.34,1.69,2.75c-0.84,1.41-3.45-0.56-3.45-0.56 s-0.14,3.31-2.32,3.17c-2.18-0.14-1.13-3.8-1.13-3.8s-2.04,2.18-3.17,0.42C32.37,19.28,35.08,18.15,35.08,18.15z" fill="#95C7F7"/>
  <path d="M97.41,24.22c0,0,0-3.39,2.05-3.25c2.33,0.16,1.44,3.52,1.44,3.52s2.86-1.13,3.49,0.49 s-1.83,2.82-1.83,2.82s1.9,1.69,0.92,2.67s-2.75,0.14-2.75,0.14s-0.48,2.56-2.18,2.3c-1.53-0.23-1.48-2.72-1.48-2.72 s-2.11,1.2-2.96-0.28c-0.84-1.48,1.48-2.82,1.48-2.82s-2.53-1.62-1.62-3.1C94.88,22.52,97.41,24.22,97.41,24.22z" fill="#95C7F7"/>
  <path d="M107.41,35.61c0,0,0.14-2.89,2.32-2.46c2.18,0.42,1.55,2.67,1.55,2.67s2.82-0.92,3.24,0.99 c0.34,1.53-1.83,2.39-1.83,2.39s1.9,1.27,0.77,2.82c-1.13,1.55-3.03-0.28-3.03-0.28s-0.07,3.03-2.32,2.67 c-2.25-0.35-1.41-2.96-1.41-2.96s-2.18,1.27-2.96-0.21c-0.77-1.48,1.55-2.82,1.55-2.82s-1.76-0.92-1.06-2.6 C104.9,34.24,107.41,35.61,107.41,35.61z" fill="#95C7F7"/>
  <path d="M99.17,54.54c0,0-2.01-3.54-0.28-4.72c2.18-1.48,3.87,1.97,3.87,1.97s2.11-3.03,3.73-1.83 c1.62,1.2-0.28,3.8-0.28,3.8s3.03,0.21,3.03,2.04s-2.67,1.76-2.67,1.76s1.21,2.46,0.07,3.32c-1.41,1.06-3.73-1-3.73-1 s-0.99,2.42-2.6,2.04c-2.22-0.52-1.06-3.8-1.06-3.8s-3.35,0.43-3.45-1.2C95.65,54.69,99.17,54.54,99.17,54.54z" fill="#95C7F7"/>
</svg>

<svg viewBox="0 0 128 128" xmlns="http://www.w3.org/2000/svg">
  <defs/>
  <path d="M90.39,80.18 C90.39,80.18 103.34,69.62 105.1,68.35 C106.4,67.42 108.12,66.22 109.68,67.93 C111.19,69.58 109.61,71.71 108.41,72.86 C106.79,74.41 93.35,85.53 93.35,85.53 L90.39,80.18 Z" fill="#474D50"/>
  <path d="M98.27,65.47 C96.19,66.07 96.37,68.5 96.65,70.89 C96.93,73.28 97,77.37 97,77.37 L101.58,72.58 C101.58,72.58 101.37,70.89 101.37,69.41 C101.37,67.93 100.95,64.7 98.27,65.47 Z" fill="#474D50"/>
  <path d="M37.1,77.65 C37.1,77.65 25.06,67.44 24.01,66.39 C22.6,64.98 20.28,64 18.8,65.76 C17.33,67.51 18.41,69.52 19.72,70.83 C22.18,73.29 34.92,84.06 34.92,84.06 L37.1,77.65 Z" fill="#474D50"/>
  <path d="M27.81,72.65 C27.81,72.65 28.09,69.06 28.23,67.58 C28.37,66.1 29.22,63.5 31.61,64.41 C33.62,65.18 33.23,67.51 32.95,69.41 C32.75,70.73 31.96,75.46 31.96,75.46 L27.81,72.65 Z" fill="#474D50"/>
  <path d="M67.23,4.23 C58.49,3.7 51.68,5.29 51.39,6.56 C51.1,7.83 51.04,26.2 51.04,26.2 C51.04,26.2 38.94,26.7 38.72,29.79 C38.51,32.82 45.27,34.93 63.36,35.42 C81.45,35.91 90.03,35.48 90.46,32.04 C90.95,28.1 79.97,27.46 79.97,27.46 C79.97,27.46 82.5,8.74 82.15,8.17 C81.8,7.6 76.52,4.8 67.23,4.23 Z" fill="#474D50"/>
  <path d="M65.54,21.83 C58.79,21.56 51.04,22.25 51.04,22.25 L51.04,26.19 C51.04,26.19 57.23,25.77 64.91,25.98 C72.59,26.19 79.97,27.46 79.97,27.46 L80.46,23.66 C80.46,23.66 74.48,22.18 65.54,21.83 Z" fill="#A42718"/>
  <path d="M43.23,69.84 C43.23,69.84 37.2,64.05 37.88,51.33 C38.58,38.24 47.73,33.17 50.41,32.4 C53.08,31.63 59.07,31.13 65.26,31.41 C71.45,31.69 79.55,32.61 81.03,33.24 C82.51,33.87 91.03,39.58 91.1,52.62 C91.17,64.92 84.27,70.83 84.27,70.83 C84.27,70.83 96.82,79.75 98.32,91.85 C99.82,103.96 94.01,114.39 83.96,119.91 C72.51,126.2 52.33,127.04 39.94,117.38 C31.09,110.47 28.02,99.83 29.62,90.26 C31.59,78.41 43.23,69.84 43.23,69.84 Z" fill="#E0E0E0"/>
  <path d="M51.84,45.93 C48.93,45.41 47.85,47.85 47.66,49.64 C47.47,51.42 48.1,53.85 50.05,54.19 C52.16,54.57 53.85,53.02 54.13,50.1 C54.39,47.55 53.2,46.17 51.84,45.93 Z" fill="#303030"/>
  <path d="M72.91,50.2 C72.69,52.84 74.34,54.42 76.15,54.47 C78.03,54.52 79.44,52.9 79.59,50.16 C79.73,47.63 78.32,46.36 76.39,46.35 C74.41,46.34 73.1,47.99 72.91,50.2 Z" fill="#303030"/>
  <path d="M56.43,60.47 C55.3,61.42 56.5,63.3 58.96,64.41 C61.53,65.57 65.86,65.92 69.27,64.2 C71.03,63.31 71.98,61.74 71.06,60.96 C70.29,60.31 69.23,60.74 68.16,61.31 C67.05,61.91 65.17,62.31 63.67,62.26 C62.17,62.21 60.22,61.45 59.52,61.03 C58.4,60.37 57.51,59.56 56.43,60.47 Z" fill="#303030"/>
  <path d="M60.05,52.54 C59.91,53.1 62.65,59.87 63.96,59.73 C65.26,59.59 67.41,52.5 67.23,51.98 C67.05,51.45 64.91,51.21 63.68,51.24 C62.45,51.27 60.19,51.98 60.05,52.54 Z" fill="#FFA72B"/>
  <path d="M59.37,84.1 C59.37,87.55 62.34,87.95 63.67,87.92 C65.63,87.87 67.33,86.44 67.22,84.05 C67.11,81.66 65.84,80.56 63.46,80.44 C61.33,80.34 59.37,81.87 59.37,84.1 Z" fill="#303030"/>
  <path d="M59.96,98.58 C59.92,100.7 63.12,101.81 64.84,101.55 C66.96,101.23 68.57,98.7 67.81,96.46 C66.96,93.97 64.36,93.97 63.04,94.23 C61.71,94.49 60.01,95.66 59.96,98.58 Z" fill="#303030"/>
  <path d="M28.11,41.63 C28.11,41.63 30.03,38.6 27.87,38.03 C25.71,37.46 24.92,40.57 24.92,40.57 C24.92,40.57 22.82,37.67 21.35,39.15 C19.87,40.63 21.58,42.89 21.58,42.89 C21.58,42.89 18.06,43.23 18.74,45.95 C19.18,47.71 22.37,46.86 22.37,46.86 C22.37,46.86 21.46,50.38 23.73,50.83 C26,51.28 26.68,48.67 26.68,48.67 C26.68,48.67 28.95,50.94 30.31,49.46 C31.67,47.98 28.83,45.15 28.83,45.15 C28.83,45.15 32.01,44.02 31.44,42.09 C30.88,40.17 28.11,41.63 28.11,41.63 Z" fill="#95C7F7"/>
  <path d="M19.88,27.01 C19.88,27.01 16.7,27.03 16.7,25.42 C16.7,22.81 20.44,23.94 20.44,23.94 C20.44,23.94 18.51,20.88 20.1,19.97 C21.69,19.06 23.05,21.9 23.05,21.9 C23.05,21.9 24.41,19.4 26.23,20.08 C28.05,20.76 26,23.49 26,23.49 C26,23.49 28.84,23.38 29.06,25.19 C29.28,27 26.11,27.57 26.11,27.57 C26.11,27.57 28.15,29.61 26.56,30.86 C24.97,32.11 23.04,28.93 23.04,28.93 C23.04,28.93 22.47,31.54 20.54,31.09 C18.63,30.64 19.88,27.01 19.88,27.01 Z" fill="#95C7F7"/>
  <path d="M35.08,18.15 C35.08,18.15 32.79,17.09 33.64,15.61 C34.48,14.13 36.88,15.54 36.88,15.54 C36.88,15.54 37.51,12.44 39.13,12.87 C40.75,13.3 40.26,15.97 40.26,15.97 C40.26,15.97 43.43,15.13 43.78,16.67 C44.13,18.22 41.88,19.06 41.88,19.06 C41.88,19.06 44.41,20.4 43.57,21.81 C42.73,23.22 40.12,21.25 40.12,21.25 C40.12,21.25 39.98,24.56 37.8,24.42 C35.62,24.28 36.67,20.62 36.67,20.62 C36.67,20.62 34.63,22.8 33.5,21.04 C32.37,19.28 35.08,18.15 35.08,18.15 Z" fill="#95C7F7"/>
  <path d="M97.41,24.22 C97.41,24.22 97.41,20.83 99.46,20.97 C101.79,21.13 100.9,24.49 100.9,24.49 C100.9,24.49 103.76,23.36 104.39,24.98 C105.02,26.6 102.56,27.8 102.56,27.8 C102.56,27.8 104.46,29.49 103.48,30.47 C102.5,31.45 100.73,30.61 100.73,30.61 C100.73,30.61 100.25,33.17 98.55,32.91 C97.02,32.68 97.07,30.19 97.07,30.19 C97.07,30.19 94.96,31.39 94.11,29.91 C93.27,28.43 95.59,27.09 95.59,27.09 C95.59,27.09 93.06,25.47 93.97,23.99 C94.88,22.52 97.41,24.22 97.41,24.22 Z" fill="#95C7F7"/>
  <path d="M107.41,35.61 C107.41,35.61 107.55,32.72 109.73,33.15 C111.91,33.57 111.28,35.82 111.28,35.82 C111.28,35.82 114.1,34.9 114.52,36.81 C114.86,38.34 112.69,39.2 112.69,39.2 C112.69,39.2 114.59,40.47 113.46,42.02 C112.33,43.57 110.43,41.74 110.43,41.74 C110.43,41.74 110.36,44.77 108.11,44.41 C105.86,44.06 106.7,41.45 106.7,41.45 C106.7,41.45 104.52,42.72 103.74,41.24 C102.97,39.76 105.29,38.42 105.29,38.42 C105.29,38.42 103.53,37.5 104.23,35.82 C104.9,34.24 107.41,35.61 107.41,35.61 Z" fill="#95C7F7"/>
  <path d="M99.17,54.54 C99.17,54.54 97.16,51 98.89,49.82 C101.07,48.34 102.76,51.79 102.76,51.79 C102.76,51.79 104.87,48.76 106.49,49.96 C108.11,51.16 106.21,53.76 106.21,53.76 C106.21,53.76 109.24,53.97 109.24,55.8 C109.24,57.63 106.57,57.56 106.57,57.56 C106.57,57.56 107.78,60.02 106.64,60.88 C105.23,61.94 102.91,59.88 102.91,59.88 C102.91,59.88 101.92,62.3 100.31,61.92 C98.09,61.4 99.25,58.12 99.25,58.12 C99.25,58.12 95.9,58.55 95.8,56.92 C95.65,54.69 99.17,54.54 99.17,54.54 Z" fill="#95C7F7"/>
</svg>
